svg/u1f457.svg

<svg viewBox="0 0 128 128" xmlns="http://www.w3.org/2000/svg">
  <g>
    <path d="M89.71,68.54c-5.89-13.16-11.59-21.56-11.59-21.56c0,0,0,0,0-0.01H46.05 c-1.91,3.74-5.11,9.81-9.71,18.28c-5.59,10.3-18.23,43.45-18.23,43.45s0.74,4.38,11.5,6.35c7.14,1.31,9.29,0.19,15.26,3.43 c5.27,2.86,8.92,5.53,17.85,5.53s11.18-2.21,18.45-5.53c6.19-2.83,9.53-1.45,16.64-2.91c15.07-3.09,16.06-14.11,16.06-14.11 S102.35,96.77,89.71,68.54z" fill="#1565C0"/>
    <path d="M82.54,6.8c0.02-0.81-0.51-1.53-1.28-1.75l-3.46-0.98c-1.02-0.29-2.05,0.37-2.22,1.42l-1.71,10.55 c0,0-5.3,0.91-11.17,5.69l-0.39-0.01c-5.87-4.78-11.29-5.68-11.29-5.68L49.3,5.48c-0.17-1.04-1.21-1.7-2.22-1.42l-3.46,0.98 c-0.78,0.22-1.31,0.94-1.28,1.75c0.09,3.23,0.4,11.68,1.33,20.24c0.95,8.76,3,17.7,2.72,20.85c0,0,8.04,1.1,15.81,1.18v0.01 c0.09,0,0.17,0,0.26,0c0.09,0,0.17,0,0.26,0v-0.01c7.76-0.07,15.81-1.18,15.81-1.18c-0.28-3.15,1.77-12.09,2.72-20.85 C82.14,18.47,82.45,10.03,82.54,6.8z" fill="#1565C0"/>
    <linearGradient id="SVGID_1_" gradientUnits="userSpaceOnUse" x1="37.6166" x2="86.1578" y1="46.7504" y2="46.7504">
      <stop offset="0" stop-color="#03A9F4"/>
      <stop offset="0.0607" stop-color="#20B4F7"/>
      <stop offset="0.1468" stop-color="#42C1FA"/>
      <stop offset="0.2346" stop-color="#5DCBFC"/>
      <stop offset="0.3234" stop-color="#71D2FE"/>
      <stop offset="0.4141" stop-color="#7CD7FF"/>
      <stop offset="0.5091" stop-color="#80D8FF"/>
      <stop offset="0.609" stop-color="#7DD7FF"/>
      <stop offset="0.6956" stop-color="#72D3FE"/>
      <stop offset="0.7772" stop-color="#60CCFC"/>
      <stop offset="0.8557" stop-color="#47C3FA"/>
      <stop offset="0.9314" stop-color="#27B7F7"/>
      <stop offset="1" stop-color="#03A9F4"/>
    </linearGradient>
    <path d="M63.2,50.16c-9.1,0-15.33-0.74-17.45-0.98c-0.43-0.05-0.73-0.44-0.68-0.87l0.6-4.28 c0.06-0.42,0.43-0.72,0.85-0.67c2.03,0.22,8.09,0.79,16.68,0.79c8.26,0,13.23-0.53,15-0.75c0.41-0.05,0.79,0.23,0.86,0.64 l0.46,4.25c0.07,0.43-0.22,0.84-0.66,0.9C76.97,49.43,72.08,50.16,63.2,50.16z" fill="url(#SVGID_1_)"/>
    <path d="M73.82,16.09c-0.84-0.13-3.23,0.81-3.85,1.05c-2.73,1.05-4.99,2.5-7.16,4.45 c-0.01,0.01-0.14,0.09-0.3,0.09c-0.16,0-0.27-0.09-0.28-0.1c-2.17-1.95-4.45-3.38-7.18-4.43c-0.63-0.24-3.02-1.18-3.85-1.05 c-1,0.15,0.21,1.26,2.02,2.84c1.82,1.58,4.39,3.8,6.57,5.76c0.75,0.67,1.75,0.97,2.72,1.05c0.97-0.08,1.97-0.38,2.72-1.05 c2.18-1.96,4.75-4.18,6.57-5.76S74.82,16.24,73.82,16.09z" fill="#0D47A1"/>
    <linearGradient id="SVGID_2_" gradientUnits="userSpaceOnUse" x1="44.4274" x2="51.5346" y1="117.96" y2="64.9443">
      <stop offset="0.297" stop-color="#0D47A1"/>
      <stop offset="1" stop-color="#0D47A1" stop-opacity="0.2"/>
    </linearGradient>
    <path d="M39.6,116.06c3.73-28.23,13.54-52.85,13.54-52.85s-3.28,29.02-4.01,57.59 c0,0-2.85-1.8-5.46-2.95C41.06,116.7,39.6,116.06,39.6,116.06z" fill="url(#SVGID_2_)"/>
    <linearGradient id="SVGID_3_" gradientUnits="userSpaceOnUse" x1="82.7787" x2="76.9958" y1="120.1246" y2="77.9096">
      <stop offset="0.297" stop-color="#0D47A1"/>
      <stop offset="1" stop-color="#0D47A1" stop-opacity="0.2"/>
    </linearGradient>
    <path d="M77.45,120.26c-2.45-15.11-3.92-30.15-3.21-42.35c0,0,5.55,22.99,13.52,38.73 c0,0-2.71,0.39-5.3,1.29C80.65,118.56,77.45,120.26,77.45,120.26z" fill="url(#SVGID_3_)"/>
  </g>
</svg>

<svg viewBox="0 0 128 128" xmlns="http://www.w3.org/2000/svg">
  <defs>
    <linearGradient id="SVGID_1_" gradientUnits="userSpaceOnUse" x1="37.6166" x2="86.1578" y1="46.7504" y2="46.7504">
      <stop offset="0" stop-color="#03A9F4"/>
      <stop offset="0.0607" stop-color="#20B4F7"/>
      <stop offset="0.1468" stop-color="#42C1FA"/>
      <stop offset="0.2346" stop-color="#5DCBFC"/>
      <stop offset="0.3234" stop-color="#71D2FE"/>
      <stop offset="0.4141" stop-color="#7CD7FF"/>
      <stop offset="0.5091" stop-color="#80D8FF"/>
      <stop offset="0.609" stop-color="#7DD7FF"/>
      <stop offset="0.6956" stop-color="#72D3FE"/>
      <stop offset="0.7772" stop-color="#60CCFC"/>
      <stop offset="0.8557" stop-color="#47C3FA"/>
      <stop offset="0.9314" stop-color="#27B7F7"/>
      <stop offset="1" stop-color="#03A9F4"/>
    </linearGradient>
    <linearGradient id="SVGID_2_" gradientUnits="userSpaceOnUse" x1="44.4274" x2="51.5346" y1="117.96" y2="64.9443">
      <stop offset="0.297" stop-color="#0D47A1"/>
      <stop offset="1" stop-color="#0D47A1" stop-opacity="0.2"/>
    </linearGradient>
    <linearGradient id="SVGID_3_" gradientUnits="userSpaceOnUse" x1="82.7787" x2="76.9958" y1="120.1246" y2="77.9096">
      <stop offset="0.297" stop-color="#0D47A1"/>
      <stop offset="1" stop-color="#0D47A1" stop-opacity="0.2"/>
    </linearGradient>
  </defs>
  <path d="M89.71,68.54 C83.82,55.38 78.12,46.98 78.12,46.98 C78.12,46.98 78.12,46.98 78.12,46.97 L46.05,46.97 C44.14,50.71 40.94,56.78 36.34,65.25 C30.75,75.55 18.11,108.7 18.11,108.7 C18.11,108.7 18.85,113.08 29.61,115.05 C36.75,116.36 38.9,115.24 44.87,118.48 C50.14,121.34 53.79,124.01 62.72,124.01 C71.65,124.01 73.9,121.8 81.17,118.48 C87.36,115.65 90.7,117.03 97.81,115.57 C112.88,112.48 113.87,101.46 113.87,101.46 C113.87,101.46 102.35,96.77 89.71,68.54 Z" fill="#1565C0"/>
  <path d="M82.54,6.8 C82.56,5.99 82.03,5.27 81.26,5.05 L77.8,4.07 C76.78,3.78 75.75,4.44 75.58,5.49 L73.87,16.04 C73.87,16.04 68.57,16.95 62.7,21.73 L62.31,21.72 C56.44,16.94 51.02,16.04 51.02,16.04 L49.3,5.48 C49.13,4.44 48.09,3.78 47.08,4.06 L43.62,5.04 C42.84,5.26 42.31,5.98 42.34,6.79 C42.43,10.02 42.74,18.47 43.67,27.03 C44.62,35.79 46.67,44.73 46.39,47.88 C46.39,47.88 54.43,48.98 62.2,49.06 L62.2,49.07 C62.29,49.07 62.37,49.07 62.46,49.07 C62.55,49.07 62.63,49.07 62.72,49.07 L62.72,49.06 C70.48,48.99 78.53,47.88 78.53,47.88 C78.25,44.73 80.3,35.79 81.25,27.03 C82.14,18.47 82.45,10.03 82.54,6.8 Z" fill="#1565C0"/>
  <path d="M63.2,50.16 C54.1,50.16 47.87,49.42 45.75,49.18 C45.32,49.13 45.02,48.74 45.07,48.31 L45.67,44.03 C45.73,43.61 46.1,43.31 46.52,43.36 C48.55,43.58 54.61,44.15 63.2,44.15 C71.46,44.15 76.43,43.62 78.2,43.4 C78.61,43.35 78.99,43.63 79.06,44.04 L79.52,48.29 C79.59,48.72 79.3,49.13 78.86,49.19 C76.97,49.43 72.08,50.16 63.2,50.16 Z" fill="url(#SVGID_1_)"/>
  <path d="M73.82,16.09 C72.98,15.96 70.59,16.9 69.97,17.14 C67.24,18.19 64.98,19.64 62.81,21.59 C62.8,21.6 62.67,21.68 62.51,21.68 C62.35,21.68 62.24,21.59 62.23,21.58 C60.06,19.63 57.78,18.2 55.05,17.15 C54.42,16.91 52.03,15.97 51.2,16.1 C50.2,16.25 51.41,17.36 53.22,18.94 C55.04,20.52 57.61,22.74 59.79,24.7 C60.54,25.37 61.54,25.67 62.51,25.75 C63.48,25.67 64.48,25.37 65.23,24.7 C67.41,22.74 69.98,20.52 71.8,18.94 C73.62,17.36 74.82,16.24 73.82,16.09 Z" fill="#0D47A1"/>
  <path d="M39.6,116.06 C43.33,87.83 53.14,63.21 53.14,63.21 C53.14,63.21 49.86,92.23 49.13,120.8 C49.13,120.8 46.28,119 43.67,117.85 C41.06,116.7 39.6,116.06 39.6,116.06 Z" fill="url(#SVGID_2_)"/>
  <path d="M77.45,120.26 C75,105.15 73.53,90.11 74.24,77.91 C74.24,77.91 79.79,100.9 87.76,116.64 C87.76,116.64 85.05,117.03 82.46,117.93 C80.65,118.56 77.45,120.26 77.45,120.26 Z" fill="url(#SVGID_3_)"/>
</svg>
